public/assets/img/layout/meetup/location.svg

<svg fill="none" height="20" viewBox="0 0 14 20" width="14" xmlns="http://www.w3.org/2000/svg"><path d="m7 20c-.23333 0-.43333-.0667-.6-.2s-.29167-.3083-.375-.525c-.31667-.9333-.71667-1.8083-1.2-2.625-.46667-.8167-1.125-1.775-1.975-2.875s-1.54167-2.15-2.075-3.15c-.516667-1-.775-2.20833-.775-3.625 0-1.95.675-3.6 2.025-4.95 1.36667-1.366667 3.025-2.05 4.975-2.05s3.6.683333 4.95 2.05c1.3667 1.35 2.05 3 2.05 4.95 0 1.51667-.2917 2.78333-.875 3.8-.5667 1-1.225 1.9917-1.975 2.975-.9 1.2-1.58333 2.2-2.05 3-.45.7833-.825 1.6167-1.125 2.5-.08333.2333-.21667.4167-.4.55-.16667.1167-.35833.175-.575.175zm0-10.5c.7 0 1.29167-.24167 1.775-.725s.725-1.075.725-1.775-.24167-1.29167-.725-1.775-1.075-.725-1.775-.725-1.29167.24167-1.775.725-.725 1.075-.725 1.775.24167 1.29167.725 1.775 1.075.725 1.775.725z" fill="#1a4ce0"/></svg>

<svg width="14" height="20" viewBox="0 0 14 20" fill="none" xmlns="http://www.w3.org/2000/svg">
<path d="M7 20C6.76667 20 6.56667 19.9333 6.4 19.8C6.23333 19.6667 6.10833 19.4917 6.025 19.275C5.70833 18.3417 5.30833 17.4667 4.825 16.65C4.35833 15.8333 3.7 14.875 2.85 13.775C2 12.675 1.30833 11.625 0.775 10.625C0.258333 9.625 0 8.41667 0 7C0 5.05 0.675 3.4 2.025 2.05C3.39167 0.683333 5.05 0 7 0C8.95 0 10.6 0.683333 11.95 2.05C13.3167 3.4 14 5.05 14 7C14 8.51667 13.7083 9.78333 13.125 10.8C12.5583 11.8 11.9 12.7917 11.15 13.775C10.25 14.975 9.56667 15.975 9.1 16.775C8.65 17.5583 8.275 18.3917 7.975 19.275C7.89167 19.5083 7.75833 19.6917 7.575 19.825C7.40833 19.9417 7.21667 20 7 20ZM7 9.5C7.7 9.5 8.29167 9.25833 8.775 8.775C9.25833 8.29167 9.5 7.7 9.5 7C9.5 6.3 9.25833 5.70833 8.775 5.225C8.29167 4.74167 7.7 4.5 7 4.5C6.3 4.5 5.70833 4.74167 5.225 5.225C4.74167 5.70833 4.5 6.3 4.5 7C4.5 7.7 4.74167 8.29167 5.225 8.775C5.70833 9.25833 6.3 9.5 7 9.5Z" fill="#1A4CE0"/>
</svg>
